src/main/webapp/images/icons/ico-website.svg

<?xml version="1.0" encoding="UTF-8" standalone="no"?>
<svg width="34px" height="35px" viewBox="0 0 34 35" version="1.1" xmlns="http://www.w3.org/2000/svg" xmlns:xlink="http://www.w3.org/1999/xlink" xmlns:sketch="http://www.bohemiancoding.com/sketch/ns">
    <!-- Generator: Sketch 3.3.2 (12043) - http://www.bohemiancoding.com/sketch -->
    <title>Group</title>
    <desc>Created with Sketch.</desc>
    <defs></defs>
    <g id="Page-1" stroke="none" stroke-width="1" fill="none" fill-rule="evenodd" sketch:type="MSPage">
        <g id="Group" sketch:type="MSLayerGroup">
            <path d="M33.891,17.789 C33.891,8.497 26.358,0.964 17.067,0.964 C7.775,0.964 0.242,8.497 0.242,17.789 C0.242,27.081 7.775,34.614 17.067,34.614 C26.358,34.614 33.891,27.081 33.891,17.789" id="Fill-22" fill="#A9D6F6" sketch:type="MSShapeGroup"></path>
            <path d="M11.687,15.374 L10.152,15.374 L9.465,17.914 C9.431,18.064 9.375,18.353 9.296,18.783 C9.217,19.213 9.162,19.55 9.132,19.796 L9.101,19.796 C9.098,19.7 9.085,19.572 9.062,19.414 C9.04,19.255 9.016,19.092 8.988,18.927 C8.961,18.761 8.933,18.605 8.904,18.457 C8.875,18.31 8.853,18.199 8.84,18.124 L8.168,15.374 L6.443,15.374 L5.736,18.124 L5.654,18.56 C5.548,19.124 5.488,19.536 5.474,19.796 L5.443,19.796 C5.334,18.996 5.226,18.368 5.12,17.914 L4.459,15.374 L2.898,15.374 L4.53,21.109 L6.213,21.109 L7.26,16.569 L7.295,16.569 L7.891,19.103 L8.332,21.109 L10.035,21.109 L11.687,15.374" id="Fill-23" fill="#306382" sketch:type="MSShapeGroup"></path>
            <path d="M21.205,15.374 L19.671,15.374 L18.984,17.914 C18.949,18.064 18.892,18.353 18.814,18.783 C18.736,19.213 18.681,19.55 18.651,19.796 L18.619,19.796 C18.615,19.7 18.603,19.572 18.58,19.414 C18.559,19.255 18.533,19.092 18.506,18.927 C18.479,18.761 18.451,18.605 18.422,18.457 C18.393,18.31 18.371,18.199 18.357,18.124 L17.685,15.374 L15.962,15.374 L15.254,18.124 L15.172,18.56 C15.067,19.124 15.006,19.536 14.992,19.796 L14.961,19.796 C14.851,18.996 14.744,18.368 14.639,17.914 L13.976,15.374 L12.417,15.374 L14.049,21.109 L15.73,21.109 L16.777,16.569 L16.813,16.569 L17.408,19.103 L17.85,21.109 L19.553,21.109 L21.205,15.374" id="Fill-24" fill="#306382" sketch:type="MSShapeGroup"></path>
            <path d="M30.722,15.374 L29.189,15.374 L28.502,17.914 C28.466,18.064 28.41,18.353 28.332,18.783 C28.254,19.213 28.199,19.55 28.168,19.796 L28.136,19.796 C28.134,19.7 28.121,19.572 28.099,19.414 C28.076,19.255 28.052,19.092 28.024,18.927 C27.997,18.761 27.969,18.605 27.94,18.457 C27.91,18.31 27.888,18.199 27.875,18.124 L27.203,15.374 L25.48,15.374 L24.771,18.124 L24.69,18.56 C24.584,19.124 24.523,19.536 24.51,19.796 L24.479,19.796 C24.37,18.996 24.261,18.368 24.156,17.914 L23.494,15.374 L21.936,15.374 L23.567,21.109 L25.249,21.109 L26.295,16.569 L26.332,16.569 L26.926,19.103 L27.367,21.109 L29.07,21.109 L30.722,15.374" id="Fill-25" fill="#306382" sketch:type="MSShapeGroup"></path>
        </g>
    </g>
</svg>

<svg id="Capa_1" data-name="Capa 1" xmlns="http://www.w3.org/2000/svg" width="33.65" height="33.65" viewBox="0 0 33.65 33.65"><defs><style>.cls-1{fill:#efefef;}.cls-2{fill:#3c3c3c;}</style></defs><title>ico-website</title><g id="Page-1"><g id="Group"><path id="Fill-22" class="cls-1" d="M33.89,17.79A16.82,16.82,0,1,0,17.07,34.61,16.83,16.83,0,0,0,33.89,17.79" transform="translate(-0.24 -0.96)"/><path id="Fill-23" class="cls-2" d="M11.69,15.37H10.15l-.69,2.54c0,.15-.09.44-.17.87s-.13.77-.16,1h0a3.56,3.56,0,0,0,0-.38c0-.16,0-.32-.07-.49s-.06-.32-.08-.47l-.06-.33-.67-2.75H6.44l-.71,2.75-.08.44a10.63,10.63,0,0,0-.18,1.24h0q-.16-1.2-.32-1.88l-.66-2.54H2.9l1.63,5.73H6.21l1-4.54h0l.6,2.53.44,2H10l1.65-5.73" transform="translate(-0.24 -0.96)"/><path id="Fill-24" class="cls-2" d="M21.2,15.37H19.67L19,17.91c0,.15-.09.44-.17.87s-.13.77-.16,1h0c0-.1,0-.22,0-.38s0-.32-.07-.49-.06-.32-.08-.47l-.07-.33-.67-2.75H16l-.71,2.75-.08.44A10.86,10.86,0,0,0,15,19.8h0q-.17-1.2-.32-1.88L14,15.37H12.42L14,21.11h1.68l1-4.54h0l.6,2.53.44,2h1.7l1.65-5.73" transform="translate(-0.24 -0.96)"/><path id="Fill-25" class="cls-2" d="M30.72,15.37H29.19l-.69,2.54c0,.15-.09.44-.17.87s-.13.77-.16,1h0a3.47,3.47,0,0,0,0-.38c0-.16,0-.32-.08-.49s-.06-.32-.08-.47l-.07-.33-.67-2.75H25.48l-.71,2.75-.08.44a10.41,10.41,0,0,0-.18,1.24h0c-.11-.8-.22-1.43-.32-1.88l-.66-2.54H21.94l1.63,5.73h1.68l1-4.54h0l.59,2.53.44,2h1.7l1.65-5.73" transform="translate(-0.24 -0.96)"/></g></g></svg>
